!!!OTL: Sch&auml;fer und Edelmann (7c), S. 45
!!!id: T0111
**kern
*clefG2
*k[]
*C:
{4g
=1
4cc
4cc
=2
4b
8a
8a
=3
4a
8g
8g
=4
4g}
=5
{4a
=6
4g
8e
8e
=7
4f
4d
=8
8a
8a
4g
=9
4g}
=10
{8a
8a
=11
4g
8f
8f
=12
4f
8a
8a
=13
4g
8e
8e
=14
4e}
=15
{4g
=16
4cc
8cc
8cc
=17
4dd
4dd
=18
8b
8a
4g
=19
4ee}
=20
{4cc
=21
4cc
8cc
8cc
=22
4dd
4dd
=23
4b
8g
8g
=24
4cc}
==
*-
!!!minrhy: 8
!!!meters: 2/4 ]  ZZ[5
!!!cut: Sch&auml;fer und Edelmann (7c), S. 45
!!!reg: Luxemburg
!!!trd: Singendes Volk, Esch-Alzette 1937 posth.
!!!rhy1: X_  X_X_  X_XX  X_XX  X_
!!!rhy2: X_  X_XX  X_X_  XXX_  X_
!!!key: T0111  08  C 2/4 ]  ZZ[5
!!!mod: HEPTATONIK IONISCH]  AMBITUS[9
!!!kad: 553+3+1
!!!akz: +1765_5465_5453_+1+27+3_+1+27+1_
!!!fot: 'a__b__c__d__dw_
!!!for: 'a__b__c__b__d__
!!!fok: '^__Vd_\__~a_V__
!! PHRAS[AUFTAKTIG]
!!!fkt: "erz&auml;hlende Lieder"
!!!bem: DIEKIRCH; gesungen von fff Elise Laschette am 14.1.1934
!! THILL, Mathias:
!! PR[55] 2K[3] 2G[10] 3K[3] 3G[0] 4A[8] 4Ü[0] 5A[0] 6K[0] 6G[0]
!! 7K[0] 7G[0] 8A[0] MEHR[0] SI[23] ABS[40] SR[13] SP[10]
!! ST[15] 2k[3] 2g[10] 3k[8] 3g[3] 4d[0] 4ü[0] 5d[0] 6k[0] 6g[0]
!! 7k[0] 7g[0] 8d[0] mehr[0] si[23] dm[0] sr[13] sp[10]
!! 1F[54] 2F[46] 3F[0] 4F[0] LF[0] 2P[0] 3P[0] 4P[0] TRI[0] DF[2] AB[41]
!! TF[0] U3K[0] U3[0] U4[0] U4Ü[0] U5[0] U6K[0] U6[0] U7K[0] U7[0]
!! N1[0] N2K[0] N2[0] N3K[0] N3[15] N4[0] N4Ü[0] N5[17] N6K[0] N6[17]
!!!n7k: 0] N7[10] O1[22] O2K[0] O2[12] O3K[0] O3[7] HÖ[0
!!!RNB: symbol: &auml;      = a umlaut  (UTF-8: Å„)
